X: 32223
T: Phoenix, The
R: reel
M: 4/4
K: Dmajor
de|~f2df fece|BAGB AGFA|fedf edce|BAB/c/d A2de|
fAdf eAce|BAGB AGFA|D/D/D dc defd|edce (3ddd de|
(3fgf df fece|BAGB AGFA|fadf eAce|BAB/c/d A2de|
effd e3d|~B3d AGFA|Dddc defd|edce d2dB|
FBBD DBBd|ffdf edcB|FBBA Bcde|(3fgf fe decd|
ABFB ~B2FB|de (3fed ecdB|FBBA Bcde|fdec AB~B2|
FBBD (3BcB Bd|ffdf edcB|FBBA Bcde|faef decd|
ABFB ~B2FB|de (3fed ecdB|FBBA Bcde|fdec d2|

